exports/population-by-per-capita-household-income-2b6b8cb3647815c6c73ab3008370598d_v1_850x600.svg

<svg xmlns="http://www.w3.org/2000/svg" version="1.1" style="background-color:#fff;-webkit-font-smoothing:antialiased" width="850" height="600" font-family="'Helvetica Neue',Helvetica,Arial,sans-serif" font-size="18" text-rendering="optimizeLegibility"><g class="ChartTab"><g class="HeaderView"><g opacity=".8" transform="matrix(.31 0 0 .31 770 15)"><a xmlns:xlink="http://www.w3.org/1999/xlink" xlink:href="https://ourworldindata.org" target="_blank"><g><path fill="#1B2543" d="M0 0h211.2v130.1H0z"/><path fill="#E63912" d="M0 112.2h211.2v17.9H0z"/><g><path fill="none" d="M1.2 12.3h210.2v99.2H1.2z"/><path fill="#FFF" d="M37.8 32.2c0 12.7-7.7 19.4-17.1 19.4-9.7 0-16.6-7.5-16.6-18.7 0-11.7 7.3-19.3 17.1-19.3 10.1.1 16.6 7.7 16.6 18.6zm-28.6.6c0 7.9 4.3 14.9 11.8 14.9 7.5 0 11.8-6.9 11.8-15.3 0-7.3-3.8-14.9-11.8-14.9-7.9 0-11.8 7.3-11.8 15.3zM62.7 43.8c0 2.7.1 5.1.2 7.2h-4.3l-.3-4.3h-.1c-1.3 2.1-4 4.9-8.8 4.9-4.2 0-9.1-2.3-9.1-11.6V24.6h4.8v14.6c0 5 1.5 8.4 5.9 8.4 3.2 0 5.5-2.2 6.3-4.4.3-.7.4-1.6.4-2.5V24.6h4.8v19.2zM67.3 32.8c0-3.1-.1-5.8-.2-8.2h4.2l.2 5.2h.2c1.2-3.5 4.1-5.8 7.3-5.8.5 0 .9.1 1.4.2v4.5c-.5-.1-1-.2-1.6-.2-3.4 0-5.8 2.6-6.5 6.2-.1.7-.2 1.4-.2 2.2V51h-4.8V32.8zM95.4 51L86 14.2h5l4.4 18.6c1.1 4.6 2.1 9.2 2.7 12.7h.1c.6-3.7 1.8-8 3-12.8l4.9-18.5h5l4.5 18.7c1 4.4 2 8.7 2.6 12.6h.1c.8-4 1.8-8.1 3-12.7l4.9-18.5h4.9L120.6 51h-5L111 31.9c-1.1-4.7-1.9-8.3-2.4-12h-.1c-.7 3.7-1.5 7.3-2.8 12L100.4 51h-5zM154.9 37.6c0 9.8-6.8 14-13.2 14-7.2 0-12.7-5.2-12.7-13.6 0-8.8 5.8-14 13.1-14 7.7 0 12.8 5.5 12.8 13.6zm-21 .3c0 5.8 3.3 10.1 8 10.1 4.6 0 8-4.3 8-10.3 0-4.5-2.2-10.1-7.9-10.1s-8.1 5.2-8.1 10.3zM158.2 32.8c0-3.1-.1-5.8-.2-8.2h4.2l.2 5.2h.2c1.2-3.5 4.1-5.8 7.3-5.8.5 0 .9.1 1.4.2v4.5c-.5-.1-1-.2-1.6-.2-3.4 0-5.8 2.6-6.5 6.2-.1.7-.2 1.4-.2 2.2V51h-4.8V32.8zM173.5 12.3h4.8V51h-4.8V12.3zM206.5 12.3v31.9c0 2.3.1 5 .2 6.8h-4.3l-.2-4.6h-.2c-1.5 2.9-4.7 5.2-9 5.2-6.4 0-11.3-5.4-11.3-13.4-.1-8.8 5.4-14.2 11.9-14.2 4 0 6.8 1.9 8 4h.1V12.3h4.8zm-4.8 23.1c0-.6-.1-1.4-.2-2a7 7 0 00-6.9-5.6c-5 0-7.9 4.4-7.9 10.2 0 5.3 2.6 9.8 7.8 9.8 3.2 0 6.2-2.1 7.1-5.7.2-.7.2-1.3.2-2.1v-4.6zM42.8 64c.1 1.6-1.1 2.9-3.1 2.9-1.7 0-2.9-1.3-2.9-2.9 0-1.7 1.3-3 3-3 1.9 0 3 1.3 3 3zm-5.4 33.8V71.4h4.8v26.4h-4.8zM47.5 78.6c0-2.7-.1-5-.2-7.1h4.3l.3 4.4h.1c1.3-2.5 4.4-5 8.8-5 3.7 0 9.4 2.2 9.4 11.2v15.8h-4.8V82.6c0-4.3-1.6-7.8-6.1-7.8-3.2 0-5.6 2.2-6.5 4.9-.2.6-.3 1.4-.3 2.2v15.9h-4.8V78.6zM84 61.6c2.9-.4 6.3-.8 10.1-.8 6.8 0 11.7 1.6 14.9 4.6 3.3 3 5.2 7.3 5.2 13.2 0 6-1.9 10.9-5.3 14.3-3.4 3.4-9.1 5.3-16.3 5.3-3.4 0-6.2-.2-8.6-.4V61.6zm4.8 32.5c1.2.2 3 .3 4.8.3 10.2 0 15.7-5.7 15.7-15.6.1-8.7-4.9-14.2-14.9-14.2-2.5 0-4.3.2-5.6.5v29zM132.1 97.8l-.4-3.3h-.2a9.79 9.79 0 01-8.1 3.9c-5.4 0-8.1-3.8-8.1-7.6 0-6.4 5.7-9.9 15.9-9.8v-.5c0-2.2-.6-6.1-6-6.1-2.5 0-5 .8-6.9 2l-1.1-3.2c2.2-1.4 5.4-2.3 8.7-2.3 8.1 0 10.1 5.5 10.1 10.8v9.9c0 2.3.1 4.5.4 6.3h-4.3zm-.7-13.4c-5.3-.1-11.2.8-11.2 5.9 0 3.1 2.1 4.6 4.5 4.6 3.4 0 5.6-2.2 6.4-4.4.2-.5.3-1 .3-1.5v-4.6zM146.6 63.9v7.6h6.9v3.7h-6.9v14.2c0 3.3.9 5.1 3.6 5.1 1.3 0 2.2-.2 2.8-.3l.2 3.6c-.9.4-2.4.7-4.3.7-2.2 0-4-.7-5.2-2-1.4-1.4-1.9-3.8-1.9-6.9V75.1h-4.1v-3.7h4.1v-6.3l4.8-1.2zM171.4 97.8l-.4-3.3h-.2a9.79 9.79 0 01-8.1 3.9c-5.4 0-8.1-3.8-8.1-7.6 0-6.4 5.7-9.9 15.9-9.8v-.5c0-2.2-.6-6.1-6-6.1-2.5 0-5 .8-6.9 2l-1.1-3.2c2.2-1.4 5.4-2.3 8.7-2.3 8.1 0 10.1 5.5 10.1 10.8v9.9c0 2.3.1 4.5.4 6.3h-4.3zm-.7-13.4c-5.3-.1-11.2.8-11.2 5.9 0 3.1 2.1 4.6 4.5 4.6 3.4 0 5.6-2.2 6.4-4.4.2-.5.3-1 .3-1.5v-4.6z"/></g></g></a></g><a href="https://ourworldindata.org/grapher/population-by-per-capita-household-income?country=Sub-Saharan%20Africa" target="_blank"><text font-size="25.2" x="15" y="35.2" fill="#555"><tspan x="15" y="35.16">Population by per capita household income, Sub-Saharan Africa</tspan></text></a><text font-size="14.4" x="15" y="53.7" fill="#666"><tspan x="15" y="53.72">Income brackets are in &apos;international dollars&apos; at constant 2011 PPP prices. This means all estimates account for</tspan><tspan x="15" y="69.56">cross-country differences in price levels, as well as for inflation.</tspan></text></g><g class="StackedArea"><defs><clipPath id="a"><path d="M97.6 0h820v928.8h-820z"/></clipPath></defs><g class="AxisBoxView"><g class="HorizontalAxis" fill="#666" text-anchor="middle" font-size="16.2"><text x="97.6" y="556.5">1990</text><text x="228" y="556.5">1995</text><text x="358.4" y="556.5">2000</text><text x="488.8" y="556.5">2005</text><text x="619.2" y="556.5">2010</text><text x="697.5" y="556.5">2013</text></g><g class="VerticalAxis" fill="#666" dominant-baseline="middle" text-anchor="end" font-size="16.2"><text x="92.6" y="535.3">0</text><text x="92.6" y="442.2">200 million</text><text x="92.6" y="349.1">400 million</text><text x="92.6" y="256.1">600 million</text><text x="92.6" y="163">800 million</text></g><g class="AxisGridLines"><path stroke="#ccc" d="M97.6 535.3h599.9"/><path stroke="#ddd" stroke-dasharray="3,2" d="M97.6 442.2h599.9M97.6 349.1h599.9M97.6 256.1h599.9M97.6 163h599.9"/></g><g class="AxisGridLines" stroke="#ddd" stroke-dasharray="3,2"><path d="M97.6 535.3V92.1M228 535.3V92.1M358.4 535.3V92.1M488.8 535.3V92.1M619.2 535.3V92.1"/></g></g><g clip-path="url(#a)"><g class="HeightedLegend clickable"><g class="legendMark"><path fill="#34983f" d="M702.5 102.65h10v2.5h-10z"/><text font-size="14.4" x="717.5" y="108.2" fill="#333"><tspan x="717.5" y="108.22">above 10$ a day</tspan></text></g><g class="legendMark"><path fill="#9ecc8a" d="M702.5 180.05h10v2.5h-10z"/><text font-size="14.4" x="717.5" y="185.6" fill="#333"><tspan x="717.5" y="185.62">3.10 - 10$ a day</tspan></text></g><g class="legendMark"><path fill="#ffd53e" d="M702.5 299.05h10v2.5h-10z"/><text font-size="14.4" x="717.5" y="304.6" fill="#333"><tspan x="717.5" y="304.62">1.9 - 3.10$ a day</tspan></text></g><g class="legendMark"><path fill="#ca2628" d="M702.5 393.25h10v2.5h-10z"/><text font-size="14.4" x="717.5" y="398.8" fill="#333"><tspan x="717.5" y="398.82">1.25 - 1.9$ a day</tspan></text></g><g class="legendMark"><path fill="#3360a9" d="M702.5 484.05h10v2.5h-10z"/><text font-size="14.4" x="717.5" y="489.6" fill="#333"><tspan x="717.5" y="489.62">below 1.25$ a day</tspan></text></g></g><g class="Areas"><path d="M97.6 452.2l78.2-19.4 78.3-6.3 78.2-6.1 78.3-3.8 78.2 11.7 78.3 2.8 52.1-1.4 26.1 2 26.1 1.6 26.1 2.1v99.9H97.6" fill="#3360a9" fill-opacity=".7" class="Sub__002dSaharan-Africa_4-area"/><path d="M97.6 405.9l78.2-23.3 78.3-10.3 78.2-11.8 78.3-9.6 78.2 5.4 78.3-2.3 52.1-5.1 26.1 1 26.1 1.5 26.1 2.3v81.7l-26.1-2.1-26.1-1.6-26.1-2-52.1 1.4-78.3-2.8-78.2-11.7-78.3 3.8-78.2 6.1-78.3 6.3-78.2 19.4" fill="#ca2628" fill-opacity=".7" class="Sub__002dSaharan-Africa_3-area"/><path d="M97.6 359.6l78.2-23.6 78.3-16.3 78.2-18.8 78.3-18.5 78.2-8.1 78.3-10.5 52.1-10.7 26.1-3.2 26.1-1.8 26.1-1.1v106.7l-26.1-2.3-26.1-1.5-26.1-1-52.1 5.1-78.3 2.3-78.2-5.4-78.3 9.6-78.2 11.8-78.3 10.3-78.2 23.3" fill="#ffd53e" fill-opacity=".7" class="Sub__002dSaharan-Africa_2-area"/><path d="M97.6 307.3l78.2-21.5 78.3-20.4 78.2-23.2 78.3-24.6 78.2-25.7 78.3-26.4 52.1-19.8 26.1-9.8 26.1-10 26.1-10.2V247l-26.1 1.1-26.1 1.8-26.1 3.2-52.1 10.7-78.3 10.5-78.2 8.1-78.3 18.5-78.2 18.8-78.3 16.3-78.2 23.6" fill="#9ecc8a" fill-opacity=".7" class="Sub__002dSaharan-Africa_1-area"/><path d="M97.6 297.3l78.2-20.7 78.3-21.8 78.2-23.1 78.3-24.9 78.2-27.5 78.3-30.3 52.1-21.9 26.1-11.3 26.1-11.7 26.1-12v23.6l-26.1 10.2-26.1 10-26.1 9.8-52.1 19.8-78.3 26.4-78.2 25.7-78.3 24.6-78.2 23.2-78.3 20.4-78.2 21.5" fill="#34983f" fill-opacity=".7" class="Sub__002dSaharan-Africa_0-area"/><path stroke-linecap="round" d="M97.6 452.2l78.2-19.4 78.3-6.3 78.2-6.1 78.3-3.8 78.2 11.7 78.3 2.8 52.1-1.4 26.1 2 26.1 1.6 26.1 2.1" stroke="#2B508D" stroke-opacity=".7" stroke-width=".5" fill="none" class="Sub__002dSaharan-Africa_4-border"/><path stroke-linecap="round" d="M97.6 405.9l78.2-23.3 78.3-10.3 78.2-11.8 78.3-9.6 78.2 5.4 78.3-2.3 52.1-5.1 26.1 1 26.1 1.5 26.1 2.3" stroke="#A92021" stroke-opacity=".7" stroke-width=".5" fill="none" class="Sub__002dSaharan-Africa_3-border"/><path stroke-linecap="round" d="M97.6 359.6l78.2-23.6 78.3-16.3 78.2-18.8 78.3-18.5 78.2-8.1 78.3-10.5 52.1-10.7 26.1-3.2 26.1-1.8 26.1-1.1" stroke="#D5B234" stroke-opacity=".7" stroke-width=".5" fill="none" class="Sub__002dSaharan-Africa_2-border"/><path stroke-linecap="round" d="M97.6 307.3l78.2-21.5 78.3-20.4 78.2-23.2 78.3-24.6 78.2-25.7 78.3-26.4 52.1-19.8 26.1-9.8 26.1-10 26.1-10.2" stroke="#84AB73" stroke-opacity=".7" stroke-width=".5" fill="none" class="Sub__002dSaharan-Africa_1-border"/><path stroke-linecap="round" d="M97.6 297.3l78.2-20.7 78.3-21.8 78.2-23.1 78.3-24.9 78.2-27.5 78.3-30.3 52.1-21.9 26.1-11.3 26.1-11.7 26.1-12" stroke="#2C7F35" stroke-opacity=".7" stroke-width=".5" fill="none" class="Sub__002dSaharan-Africa_0-border"/></g></g></g><g class="SourcesFooter" fill="#777"><g class="clickable" fill="#777"><text font-size="12.6" x="15" y="581.6"><tspan x="15" y="581.58">Source: World Bank</tspan></text></g><text font-size="12.6" x="649" y="581.6"><tspan x="649.02" y="581.58"><a target="_blank" href="https://ourworldindata.org" fill="#777">OurWorldInData.org</a> • <a href="http://creativecommons.org/licenses/by-sa/4.0/deed.en_US" target="_blank" fill="#777">CC BY-SA</a></tspan></text></g></g></svg>

<svg xmlns="http://www.w3.org/2000/svg" version="1.1" style="font-family: 'Helvetica Neue', Helvetica, Arial, sans-serif; font-size: 18px; background-color: white; text-rendering: optimizeLegibility; -webkit-font-smoothing: antialiased;" width="850" height="600"><g class="ChartTab"><g class="HeaderView"><g opacity="0.8" transform="translate(770, 15) scale(0.31)"><a xmlns:xlink="http://www.w3.org/1999/xlink" xlink:href="https://ourworldindata.org" target="_blank"><g><rect x="0" y="0" fill="#1B2543" width="211.2" height="130.1"/><rect x="0" y="112.2" fill="#E63912" width="211.2" height="17.9"/><g><rect x="1.2" y="12.3" fill="none" width="210.2" height="99.2"/><path fill="#FFFFFF" d="M37.8,32.2c0,12.7-7.7,19.4-17.1,19.4c-9.7,0-16.6-7.5-16.6-18.7c0-11.7,7.3-19.3,17.1-19.3 C31.3,13.7,37.8,21.3,37.8,32.2z M9.2,32.8c0,7.9,4.3,14.9,11.8,14.9c7.5,0,11.8-6.9,11.8-15.3c0-7.3-3.8-14.9-11.8-14.9 C13.1,17.5,9.2,24.8,9.2,32.8z"/><path fill="#FFFFFF" d="M62.7,43.8c0,2.7,0.1,5.1,0.2,7.2h-4.3l-0.3-4.3h-0.1c-1.3,2.1-4,4.9-8.8,4.9c-4.2,0-9.1-2.3-9.1-11.6 V24.6h4.8v14.6c0,5,1.5,8.4,5.9,8.4c3.2,0,5.5-2.2,6.3-4.4c0.3-0.7,0.4-1.6,0.4-2.5V24.6h4.8V43.8z"/><path fill="#FFFFFF" d="M67.3,32.8c0-3.1-0.1-5.8-0.2-8.2h4.2l0.2,5.2h0.2c1.2-3.5,4.1-5.8,7.3-5.8c0.5,0,0.9,0.1,1.4,0.2v4.5 c-0.5-0.1-1-0.2-1.6-0.2c-3.4,0-5.8,2.6-6.5,6.2c-0.1,0.7-0.2,1.4-0.2,2.2V51h-4.8V32.8z"/><path fill="#FFFFFF" d="M95.4,51l-9.4-36.8h5l4.4,18.6c1.1,4.6,2.1,9.2,2.7,12.7h0.1c0.6-3.7,1.8-8,3-12.8l4.9-18.5h5l4.5,18.7 c1,4.4,2,8.7,2.6,12.6h0.1c0.8-4,1.8-8.1,3-12.7l4.9-18.5h4.9L120.6,51h-5L111,31.9c-1.1-4.7-1.9-8.3-2.4-12h-0.1 c-0.7,3.7-1.5,7.3-2.8,12L100.4,51H95.4z"/><path fill="#FFFFFF" d="M154.9,37.6c0,9.8-6.8,14-13.2,14c-7.2,0-12.7-5.2-12.7-13.6c0-8.8,5.8-14,13.1-14 C149.8,24,154.9,29.5,154.9,37.6z M133.9,37.9c0,5.8,3.3,10.1,8,10.1c4.6,0,8-4.3,8-10.3c0-4.5-2.2-10.1-7.9-10.1 C136.3,27.6,133.9,32.8,133.9,37.9z"/><path fill="#FFFFFF" d="M158.2,32.8c0-3.1-0.1-5.8-0.2-8.2h4.2l0.2,5.2h0.2c1.2-3.5,4.1-5.8,7.3-5.8c0.5,0,0.9,0.1,1.4,0.2v4.5 c-0.5-0.1-1-0.2-1.6-0.2c-3.4,0-5.8,2.6-6.5,6.2c-0.1,0.7-0.2,1.4-0.2,2.2V51h-4.8V32.8z"/><path fill="#FFFFFF" d="M173.5,12.3h4.8V51h-4.8V12.3z"/><path fill="#FFFFFF" d="M206.5,12.3v31.9c0,2.3,0.1,5,0.2,6.8h-4.3l-0.2-4.6H202c-1.5,2.9-4.7,5.2-9,5.2 c-6.4,0-11.3-5.4-11.3-13.4c-0.1-8.8,5.4-14.2,11.9-14.2c4,0,6.8,1.9,8,4h0.1V12.3H206.5z M201.7,35.4c0-0.6-0.1-1.4-0.2-2 c-0.7-3.1-3.3-5.6-6.9-5.6c-5,0-7.9,4.4-7.9,10.2c0,5.3,2.6,9.8,7.8,9.8c3.2,0,6.2-2.1,7.1-5.7c0.2-0.7,0.2-1.3,0.2-2.1V35.4z"/><path fill="#FFFFFF" d="M42.8,64c0.1,1.6-1.1,2.9-3.1,2.9c-1.7,0-2.9-1.3-2.9-2.9c0-1.7,1.3-3,3-3C41.7,61,42.8,62.3,42.8,64z M37.4,97.8V71.4h4.8v26.4H37.4z"/><path fill="#FFFFFF" d="M47.5,78.6c0-2.7-0.1-5-0.2-7.1h4.3l0.3,4.4h0.1c1.3-2.5,4.4-5,8.8-5c3.7,0,9.4,2.2,9.4,11.2v15.8h-4.8 V82.6c0-4.3-1.6-7.8-6.1-7.8c-3.2,0-5.6,2.2-6.5,4.9c-0.2,0.6-0.3,1.4-0.3,2.2v15.9h-4.8V78.6z"/><path fill="#FFFFFF" d="M84,61.6c2.9-0.4,6.3-0.8,10.1-0.8c6.8,0,11.7,1.6,14.9,4.6c3.3,3,5.2,7.3,5.2,13.2c0,6-1.9,10.9-5.3,14.3 c-3.4,3.4-9.1,5.3-16.3,5.3c-3.4,0-6.2-0.2-8.6-0.4V61.6z M88.8,94.1c1.2,0.2,3,0.3,4.8,0.3c10.2,0,15.7-5.7,15.7-15.6 c0.1-8.7-4.9-14.2-14.9-14.2c-2.5,0-4.3,0.2-5.6,0.5V94.1z"/><path fill="#FFFFFF" d="M132.1,97.8l-0.4-3.3h-0.2c-1.5,2.1-4.3,3.9-8.1,3.9c-5.4,0-8.1-3.8-8.1-7.6c0-6.4,5.7-9.9,15.9-9.8v-0.5 c0-2.2-0.6-6.1-6-6.1c-2.5,0-5,0.8-6.9,2l-1.1-3.2c2.2-1.4,5.4-2.3,8.7-2.3c8.1,0,10.1,5.5,10.1,10.8v9.9c0,2.3,0.1,4.5,0.4,6.3 H132.1z M131.4,84.4c-5.3-0.1-11.2,0.8-11.2,5.9c0,3.1,2.1,4.6,4.5,4.6c3.4,0,5.6-2.2,6.4-4.4c0.2-0.5,0.3-1,0.3-1.5V84.4z"/><path fill="#FFFFFF" d="M146.6,63.9v7.6h6.9v3.7h-6.9v14.2c0,3.3,0.9,5.1,3.6,5.1c1.3,0,2.2-0.2,2.8-0.3l0.2,3.6 c-0.9,0.4-2.4,0.7-4.3,0.7c-2.2,0-4-0.7-5.2-2c-1.4-1.4-1.9-3.8-1.9-6.9V75.1h-4.1v-3.7h4.1v-6.3L146.6,63.9z"/><path fill="#FFFFFF" d="M171.4,97.8l-0.4-3.3h-0.2c-1.5,2.1-4.3,3.9-8.1,3.9c-5.4,0-8.1-3.8-8.1-7.6c0-6.4,5.7-9.9,15.9-9.8v-0.5 c0-2.2-0.6-6.1-6-6.1c-2.5,0-5,0.8-6.9,2l-1.1-3.2c2.2-1.4,5.4-2.3,8.7-2.3c8.1,0,10.1,5.5,10.1,10.8v9.9c0,2.3,0.1,4.5,0.4,6.3 H171.4z M170.7,84.4c-5.3-0.1-11.2,0.8-11.2,5.9c0,3.1,2.1,4.6,4.5,4.6c3.4,0,5.6-2.2,6.4-4.4c0.2-0.5,0.3-1,0.3-1.5V84.4z"/></g></g></a></g><a href="https://ourworldindata.org/grapher/population-by-per-capita-household-income?country=Sub-Saharan%20Africa" target="_blank"><text font-size="25.20" x="15.0" y="35.2" fill="#555"><tspan x="15" y="35.160000000000004">Population by per capita household income, Sub-Saharan Africa</tspan></text></a><text font-size="14.40" x="15.0" y="53.7" fill="#666"><tspan x="15" y="53.72">Income brackets are in 'international dollars' at constant 2011 PPP prices. This means all estimates account for</tspan><tspan x="15" y="69.56">cross-country differences in price levels, as well as for inflation.</tspan></text></g><g class="StackedArea"><defs><clipPath id="boundsClip-1"><rect x="97.598" y="0" width="820" height="928.8"></rect></clipPath></defs><g class="AxisBoxView"><g class="HorizontalAxis"><text x="97.6" y="556.5" fill="#666" text-anchor="middle" font-size="16.2">1990</text><text x="228" y="556.5" fill="#666" text-anchor="middle" font-size="16.2">1995</text><text x="358.4" y="556.5" fill="#666" text-anchor="middle" font-size="16.2">2000</text><text x="488.8" y="556.5" fill="#666" text-anchor="middle" font-size="16.2">2005</text><text x="619.2" y="556.5" fill="#666" text-anchor="middle" font-size="16.2">2010</text><text x="697.5" y="556.5" fill="#666" text-anchor="middle" font-size="16.2">2013</text></g><g class="VerticalAxis"><text x="92.60" y="535.3" fill="#666" dominant-baseline="middle" text-anchor="end" font-size="16.2">0</text><text x="92.60" y="442.2" fill="#666" dominant-baseline="middle" text-anchor="end" font-size="16.2">200 million</text><text x="92.60" y="349.1" fill="#666" dominant-baseline="middle" text-anchor="end" font-size="16.2">400 million</text><text x="92.60" y="256.1" fill="#666" dominant-baseline="middle" text-anchor="end" font-size="16.2">600 million</text><text x="92.60" y="163" fill="#666" dominant-baseline="middle" text-anchor="end" font-size="16.2">800 million</text></g><g class="AxisGridLines"><line x1="97.60" y1="535.3" x2="697.50" y2="535.3" stroke="#ccc"></line><line x1="97.60" y1="442.2" x2="697.50" y2="442.2" stroke="#ddd" stroke-dasharray="3,2"></line><line x1="97.60" y1="349.1" x2="697.50" y2="349.1" stroke="#ddd" stroke-dasharray="3,2"></line><line x1="97.60" y1="256.1" x2="697.50" y2="256.1" stroke="#ddd" stroke-dasharray="3,2"></line><line x1="97.60" y1="163" x2="697.50" y2="163" stroke="#ddd" stroke-dasharray="3,2"></line></g><g class="AxisGridLines"><line x1="97.6" y1="535.30" x2="97.6" y2="92.10" stroke="#ddd" stroke-dasharray="3,2"></line><line x1="228" y1="535.30" x2="228" y2="92.10" stroke="#ddd" stroke-dasharray="3,2"></line><line x1="358.4" y1="535.30" x2="358.4" y2="92.10" stroke="#ddd" stroke-dasharray="3,2"></line><line x1="488.8" y1="535.30" x2="488.8" y2="92.10" stroke="#ddd" stroke-dasharray="3,2"></line><line x1="619.2" y1="535.30" x2="619.2" y2="92.10" stroke="#ddd" stroke-dasharray="3,2"></line></g></g><g clip-path="url(#boundsClip-1)"><g class="HeightedLegend clickable"><g class="legendMark"><rect x="702.496" y="96.7" width="122.13600000000001" height="14.4" fill="#fff" opacity="0"></rect><rect x="702.496" y="102.65" width="10" height="2.5" fill="#34983f"></rect><text font-size="14.40" x="717.5" y="108.2" fill="#333"><tspan x="717.496" y="108.22000000000001">above 10$ a day</tspan></text></g><g class="legendMark"><rect x="702.496" y="174.10000000000002" width="119.68800000000002" height="14.4" fill="#fff" opacity="0"></rect><rect x="702.496" y="180.05" width="10" height="2.5" fill="#9ecc8a"></rect><text font-size="14.40" x="717.5" y="185.6" fill="#333"><tspan x="717.496" y="185.62000000000003">3.10 - 10$ a day</tspan></text></g><g class="legendMark"><rect x="702.496" y="293.1" width="123.72000000000001" height="14.4" fill="#fff" opacity="0"></rect><rect x="702.496" y="299.05" width="10" height="2.5" fill="#ffd53e"></rect><text font-size="14.40" x="717.5" y="304.6" fill="#333"><tspan x="717.496" y="304.62">1.9 - 3.10$ a day</tspan></text></g><g class="legendMark"><rect x="702.496" y="387.3" width="123.72000000000001" height="14.4" fill="#fff" opacity="0"></rect><rect x="702.496" y="393.25" width="10" height="2.5" fill="#ca2628"></rect><text font-size="14.40" x="717.5" y="398.8" fill="#333"><tspan x="717.496" y="398.82">1.25 - 1.9$ a day</tspan></text></g><g class="legendMark"><rect x="702.496" y="478.1" width="132.50400000000002" height="14.4" fill="#fff" opacity="0"></rect><rect x="702.496" y="484.05" width="10" height="2.5" fill="#3360a9"></rect><text font-size="14.40" x="717.5" y="489.6" fill="#333"><tspan x="717.496" y="489.62">below 1.25$ a day</tspan></text></g></g><g class="Areas"><rect x="97.598" y="92.1" width="599.898" height="443.19999999999993" opacity="0" fill="rgba(255,255,255,0)"></rect><path stroke-linecap="round" d="M97.6 452.2L175.8 432.8L254.1 426.5L332.3 420.4L410.6 416.6L488.8 428.3L567.1 431.1L619.2 429.7L645.3 431.7L671.4 433.3L697.5 435.4L697.496 535.3L97.598 535.3" fill="#3360a9" fill-opacity="0.7" class="Sub__002dSaharan-Africa_4-area"></path><path stroke-linecap="round" d="M97.6 405.9L175.8 382.6L254.1 372.3L332.3 360.5L410.6 350.9L488.8 356.3L567.1 354L619.2 348.9L645.3 349.9L671.4 351.4L697.5 353.7L697.5 435.4L671.4 433.3L645.3 431.7L619.2 429.7L567.1 431.1L488.8 428.3L410.6 416.6L332.3 420.4L254.1 426.5L175.8 432.8L97.6 452.2" fill="#ca2628" fill-opacity="0.7" class="Sub__002dSaharan-Africa_3-area"></path><path stroke-linecap="round" d="M97.6 359.6L175.8 336L254.1 319.7L332.3 300.9L410.6 282.4L488.8 274.3L567.1 263.8L619.2 253.1L645.3 249.9L671.4 248.1L697.5 247L697.5 353.7L671.4 351.4L645.3 349.9L619.2 348.9L567.1 354L488.8 356.3L410.6 350.9L332.3 360.5L254.1 372.3L175.8 382.6L97.6 405.9" fill="#ffd53e" fill-opacity="0.7" class="Sub__002dSaharan-Africa_2-area"></path><path stroke-linecap="round" d="M97.6 307.3L175.8 285.8L254.1 265.4L332.3 242.2L410.6 217.6L488.8 191.9L567.1 165.5L619.2 145.7L645.3 135.9L671.4 125.9L697.5 115.7L697.5 247L671.4 248.1L645.3 249.9L619.2 253.1L567.1 263.8L488.8 274.3L410.6 282.4L332.3 300.9L254.1 319.7L175.8 336L97.6 359.6" fill="#9ecc8a" fill-opacity="0.7" class="Sub__002dSaharan-Africa_1-area"></path><path stroke-linecap="round" d="M97.6 297.3L175.8 276.6L254.1 254.8L332.3 231.7L410.6 206.8L488.8 179.3L567.1 149L619.2 127.1L645.3 115.8L671.4 104.1L697.5 92.1L697.5 115.7L671.4 125.9L645.3 135.9L619.2 145.7L567.1 165.5L488.8 191.9L410.6 217.6L332.3 242.2L254.1 265.4L175.8 285.8L97.6 307.3" fill="#34983f" fill-opacity="0.7" class="Sub__002dSaharan-Africa_0-area"></path><path stroke-linecap="round" d="M97.6 452.2L175.8 432.8L254.1 426.5L332.3 420.4L410.6 416.6L488.8 428.3L567.1 431.1L619.2 429.7L645.3 431.7L671.4 433.3L697.5 435.4" stroke="rgb(43, 80, 141)" stroke-opacity="0.7" stroke-width="0.5" fill="none" class="Sub__002dSaharan-Africa_4-border"></path><path stroke-linecap="round" d="M97.6 405.9L175.8 382.6L254.1 372.3L332.3 360.5L410.6 350.9L488.8 356.3L567.1 354L619.2 348.9L645.3 349.9L671.4 351.4L697.5 353.7" stroke="rgb(169, 32, 33)" stroke-opacity="0.7" stroke-width="0.5" fill="none" class="Sub__002dSaharan-Africa_3-border"></path><path stroke-linecap="round" d="M97.6 359.6L175.8 336L254.1 319.7L332.3 300.9L410.6 282.4L488.8 274.3L567.1 263.8L619.2 253.1L645.3 249.9L671.4 248.1L697.5 247" stroke="rgb(213, 178, 52)" stroke-opacity="0.7" stroke-width="0.5" fill="none" class="Sub__002dSaharan-Africa_2-border"></path><path stroke-linecap="round" d="M97.6 307.3L175.8 285.8L254.1 265.4L332.3 242.2L410.6 217.6L488.8 191.9L567.1 165.5L619.2 145.7L645.3 135.9L671.4 125.9L697.5 115.7" stroke="rgb(132, 171, 115)" stroke-opacity="0.7" stroke-width="0.5" fill="none" class="Sub__002dSaharan-Africa_1-border"></path><path stroke-linecap="round" d="M97.6 297.3L175.8 276.6L254.1 254.8L332.3 231.7L410.6 206.8L488.8 179.3L567.1 149L619.2 127.1L645.3 115.8L671.4 104.1L697.5 92.1" stroke="rgb(44, 127, 53)" stroke-opacity="0.7" stroke-width="0.5" fill="none" class="Sub__002dSaharan-Africa_0-border"></path></g></g></g><g style="fill: #777;" class="SourcesFooter"><g style="fill: #777;" class="clickable"><text font-size="12.60" x="15.0" y="581.6"><tspan x="15" y="581.58">Source: World Bank</tspan></text></g><text font-size="12.60" x="649.0" y="581.6"><tspan x="649.024" y="581.58"><a target='_blank' style='fill: #777;' href='https://ourworldindata.org'>OurWorldInData.org</a> • <a style="fill: #777;" href="http://creativecommons.org/licenses/by-sa/4.0/deed.en_US" target="_blank">CC BY-SA</a></tspan></text></g></g></svg>
